!! 00000] TT[WS
!!!OTL: Huangyandong da shengli
!!!ARE: Asia, China, Shanxi Zuoquan
!! Ethnic Group: Han
!! WI, 298 (1)
!!!SCT: J0359
!!!YEM: Copyright 1995, estate of Helmut Schaffrath.
**kern
*ICvox
*Ivox
*M2/4
*k[f#c#g#]
*A:
{8b
16f#
16a
8b
16f#
16a
=1
8b
16f#
16a
8b
16a
16f#
=2
16e
16f#
8a
8a
16f#
16e
=3
16f#
16e
16d
16c#
4B}
=4
{8.b
16a
8f#
16f#
16e
=5
8f#
8g#
8f#
8r
=6
16e
16f#
8a
16a
16f#
8e
=7
16f#
16e
16d
16c#
4B}
==
!!!AGN: Xiaodiao. Xinminge, Xuanchuan
!! Neue Text. Politische Liede
!!!ONB: ESAC (Essen Associative Code) Database: CHINA
!!!AMT: simple duple
!!!AIN: vox
!!!EED: Helmut Schaffrath
!!!EEV: 1.0
*-
